src/icons/icons_set_03/041-lit.svg

<svg height="50" viewBox="0 0 50 50" width="50" xmlns="http://www.w3.org/2000/svg"><g transform="translate(3.995 4.495595)"><path d="m10.5250054 15.2656577h-2.61812326c-2.62062381 0-2.62062381 2.6181233-2.62062381 2.6181233v2.6206238h7.85937087v-2.6206238c0-2.6181233-2.6206238-2.6181233-2.6206238-2.6181233z"/><path d="m4.005 33.7544048v4.875c0 1.1045695-.8954305 2-2 2s-2-.8954305-2-2v-36.12500004c0-1.1045695.8954305-2 2-2s2 .8954305 2 2v20.00000004h7.5c1.1045695 0 2 .8954305 2 2s-.8954305 2-2 2h-7.5v3.25h7.5c1.1045695 0 2 .8954305 2 2s-.8954305 2-2 2zm28.7187417-14.4887471h-12.9574887v10.3393655h12.9574887zm1.3793762-4s2.6206238 0 2.6206238 2.6181233v13.1006184s0 2.6206238-2.6206238 2.6206238h-18.3368649v-15.7212422s0-2.6181233 2.6181232-2.6181233zm4.1518821.2387471c0-1.1045695.8954305-2 2-2s2 .8954305 2 2v23.125c0 1.1045695-.8954305 2-2 2s-2-.8954305-2-2z"/></g></svg>

<?xml version="1.0" encoding="UTF-8"?>
<svg width="50px" height="50px" viewBox="0 0 50 50" version="1.1" xmlns="http://www.w3.org/2000/svg" xmlns:xlink="http://www.w3.org/1999/xlink">
    <!-- Generator: Sketch 52.4 (67378) - http://www.bohemiancoding.com/sketch -->
    <title>041-lit</title>
    <desc>Created with Sketch.</desc>
    <g id="041-lit" stroke="none" stroke-width="1" fill="none" fill-rule="evenodd">
        <g id="Group" transform="translate(3.995000, 4.495595)" fill="#000000" fill-rule="nonzero">
            <g id="000-lit">
                <g id="ICONSET-01">
                    <g id="000-lit">
                        <path d="M10.5250054,15.2656577 L7.90688214,15.2656577 C5.28625833,15.2656577 5.28625833,17.883781 5.28625833,17.883781 L5.28625833,20.5044048 L13.1456292,20.5044048 L13.1456292,17.883781 C13.1456292,15.2656577 10.5250054,15.2656577 10.5250054,15.2656577 Z" id="Shape"></path>
                        <path d="M4.005,33.7544048 L4.005,38.6294048 C4.005,39.7339743 3.1095695,40.6294048 2.005,40.6294048 C0.9004305,40.6294048 0.005,39.7339743 0.005,38.6294048 L0.005,2.50440476 C0.005,1.39983526 0.9004305,0.504404762 2.005,0.504404762 C3.1095695,0.504404762 4.005,1.39983526 4.005,2.50440476 L4.005,22.5044048 L11.505,22.5044048 C12.6095695,22.5044048 13.505,23.3998353 13.505,24.5044048 C13.505,25.6089743 12.6095695,26.5044048 11.505,26.5044048 L4.005,26.5044048 L4.005,29.7544048 L11.505,29.7544048 C12.6095695,29.7544048 13.505,30.6498353 13.505,31.7544048 C13.505,32.8589743 12.6095695,33.7544048 11.505,33.7544048 L4.005,33.7544048 Z M32.7237417,19.2656577 L19.766253,19.2656577 L19.766253,29.6050232 L32.7237417,29.6050232 L32.7237417,19.2656577 Z M34.1031179,15.2656577 C34.1031179,15.2656577 36.7237417,15.2656577 36.7237417,17.883781 L36.7237417,30.9843994 C36.7237417,30.9843994 36.7237417,33.6050232 34.1031179,33.6050232 L15.766253,33.6050232 L15.766253,17.883781 C15.766253,17.883781 15.766253,15.2656577 18.3843762,15.2656577 L34.1031179,15.2656577 Z M38.255,15.5044048 C38.255,14.3998353 39.1504305,13.5044048 40.255,13.5044048 C41.3595695,13.5044048 42.255,14.3998353 42.255,15.5044048 L42.255,38.6294048 C42.255,39.7339743 41.3595695,40.6294048 40.255,40.6294048 C39.1504305,40.6294048 38.255,39.7339743 38.255,38.6294048 L38.255,15.5044048 Z" id="Combined-Shape"></path>
                    </g>
                </g>
            </g>
        </g>
    </g>
</svg>
